X: 35680
T: Sailor's Wife, The
R: jig
M: 6/8
K: Edorian
B|:EFG F2E|e2f g2a|bag fed|B/c/dB AFD|
EFG F2E|e2f g2a|bag afd|1 e3 e2B:|2 e3 e2f||
|:gab gab|gab bag|fda fda|fda agf|
g2b bag|f2a aga|bge afd|1 e3 e2f:|2 e3 e2B||

